src/scalable/apps/polari.svg

<?xml version="1.0" encoding="UTF-8" standalone="no"?>
<!-- Created with Inkscape (http://www.inkscape.org/) -->

<svg
   xmlns:dc="http://purl.org/dc/elements/1.1/"
   xmlns:cc="http://creativecommons.org/ns#"
   xmlns:rdf="http://www.w3.org/1999/02/22-rdf-syntax-ns#"
   xmlns:svg="http://www.w3.org/2000/svg"
   xmlns="http://www.w3.org/2000/svg"
   xmlns:xlink="http://www.w3.org/1999/xlink"
   xmlns:sodipodi="http://sodipodi.sourceforge.net/DTD/sodipodi-0.dtd"
   xmlns:inkscape="http://www.inkscape.org/namespaces/inkscape"
   width="64"
   height="64"
   viewBox="0 0 16.933333 16.933333"
   version="1.1"
   id="svg4572"
   inkscape:version="0.92.2 2405546, 2018-03-11"
   sodipodi:docname="polari.svg">
  <title
     id="title4611">Canvas icon theme</title>
  <defs
     id="defs4566">
    <linearGradient
       inkscape:collect="always"
       id="linearGradient876">
      <stop
         style="stop-color:#70bd87;stop-opacity:1;"
         offset="0"
         id="stop872" />
      <stop
         style="stop-color:#70bd87;stop-opacity:0;"
         offset="1"
         id="stop874" />
    </linearGradient>
    <linearGradient
       inkscape:collect="always"
       id="linearGradient838">
      <stop
         style="stop-color:#69e17c;stop-opacity:1;"
         offset="0"
         id="stop834" />
      <stop
         style="stop-color:#5eda82;stop-opacity:1"
         offset="1"
         id="stop836" />
    </linearGradient>
    <linearGradient
       inkscape:collect="always"
       xlink:href="#linearGradient838"
       id="linearGradient840"
       x1="10.583333"
       y1="283.50626"
       x2="10.583333"
       y2="294.61874"
       gradientUnits="userSpaceOnUse"
       gradientTransform="translate(-0.79375,0.2645865)" />
    <linearGradient
       inkscape:collect="always"
       xlink:href="#linearGradient876"
       id="linearGradient878"
       x1="27"
       y1="50"
       x2="27"
       y2="14"
       gradientUnits="userSpaceOnUse" />
  </defs>
  <sodipodi:namedview
     id="base"
     pagecolor="#ffffff"
     bordercolor="#666666"
     borderopacity="1.0"
     inkscape:pageopacity="0.0"
     inkscape:pageshadow="2"
     inkscape:zoom="11.2"
     inkscape:cx="15.502717"
     inkscape:cy="25.834311"
     inkscape:document-units="px"
     inkscape:current-layer="layer1"
     showgrid="true"
     units="px"
     width="64px"
     showguides="true"
     inkscape:guide-bbox="true"
     inkscape:window-width="1920"
     inkscape:window-height="1002"
     inkscape:window-x="0"
     inkscape:window-y="0"
     inkscape:window-maximized="1"
     inkscape:snap-bbox="true"
     inkscape:bbox-nodes="true"
     inkscape:snap-bbox-edge-midpoints="true">
    <inkscape:grid
       type="xygrid"
       id="grid4582" />
    <sodipodi:guide
       position="1.0583333,15.875"
       orientation="0,1"
       id="guide4584"
       inkscape:locked="false" />
    <sodipodi:guide
       position="1.0583333,1.0583333"
       orientation="1,0"
       id="guide4586"
       inkscape:locked="false" />
    <sodipodi:guide
       position="15.875,15.875"
       orientation="1,0"
       id="guide4588"
       inkscape:locked="false" />
    <sodipodi:guide
       position="1.0583333,1.0583333"
       orientation="0,1"
       id="guide4590"
       inkscape:locked="false" />
    <sodipodi:guide
       position="8.4666665,8.4666665"
       orientation="0,1"
       id="guide822"
       inkscape:locked="false" />
    <sodipodi:guide
       position="8.4666665,8.4666665"
       orientation="1,0"
       id="guide824"
       inkscape:locked="false" />
  </sodipodi:namedview>
  <metadata
     id="metadata4569">
    <rdf:RDF>
      <cc:Work
         rdf:about="">
        <dc:format>image/svg+xml</dc:format>
        <dc:type
           rdf:resource="http://purl.org/dc/dcmitype/StillImage" />
        <dc:title>Canvas icon theme</dc:title>
        <cc:license
           rdf:resource="http://creativecommons.org/licenses/by-nc-sa/4.0/" />
        <dc:creator>
          <cc:Agent>
            <dc:title>Vince Liuice</dc:title>
          </cc:Agent>
        </dc:creator>
      </cc:Work>
      <cc:License
         rdf:about="http://creativecommons.org/licenses/by-nc-sa/4.0/">
        <cc:permits
           rdf:resource="http://creativecommons.org/ns#Reproduction" />
        <cc:permits
           rdf:resource="http://creativecommons.org/ns#Distribution" />
        <cc:requires
           rdf:resource="http://creativecommons.org/ns#Notice" />
        <cc:requires
           rdf:resource="http://creativecommons.org/ns#Attribution" />
        <cc:prohibits
           rdf:resource="http://creativecommons.org/ns#CommercialUse" />
        <cc:permits
           rdf:resource="http://creativecommons.org/ns#DerivativeWorks" />
        <cc:requires
           rdf:resource="http://creativecommons.org/ns#ShareAlike" />
      </cc:License>
    </rdf:RDF>
  </metadata>
  <g
     inkscape:label="Layer 1"
     inkscape:groupmode="layer"
     id="layer1"
     transform="translate(0,-280.06667)">
    <path
       style="opacity:1;fill:#ffffff;fill-opacity:1;stroke:#000000;stroke-width:1.99999988;stroke-miterlimit:4;stroke-dasharray:none;stroke-opacity:0.03921569;paint-order:stroke markers fill"
       d="M 27 8 A 20.999949 20.999949 0 0 0 6 29 L 6 50 L 22.332031 50 A 20.999947 20.999947 0 0 1 16 35 A 20.999947 20.999947 0 0 1 37 14 A 20.999947 20.999947 0 0 1 42.365234 14.722656 A 20.999949 20.999949 0 0 0 27 8 z "
       transform="matrix(0.26458333,0,0,0.26458333,0,280.06667)"
       id="path13" />
    <path
       inkscape:connector-curvature="0"
       id="path837"
       d="M 7.1437499,282.18334 A 5.5562364,5.5562364 0 0 0 1.5875,287.73959 v 5.55625 H 7.1437499 A 5.5562364,5.5562364 0 0 0 12.7,287.73959 5.5562364,5.5562364 0 0 0 7.1437499,282.18334 Z"
       style="opacity:1;fill:#ffffff;fill-opacity:1;stroke:none;stroke-width:0.52916664;stroke-miterlimit:4;stroke-dasharray:none;stroke-opacity:0.03921569;paint-order:stroke markers fill" />
    <path
       inkscape:connector-curvature="0"
       id="path824"
       d="m 9.789583,283.77084 a 5.556236,5.556236 0 0 1 5.55625,5.55625 v 5.55625 h -5.55625 a 5.556236,5.556236 0 0 1 -5.5562497,-5.55625 5.556236,5.556236 0 0 1 5.5562497,-5.55625 z"
       style="opacity:0.65;fill:url(#linearGradient840);fill-opacity:1;stroke:none;stroke-width:0.39687401;stroke-miterlimit:4;stroke-dasharray:none;stroke-opacity:0.03921569;paint-order:stroke markers fill" />
    <path
       style="opacity:1;fill:url(#linearGradient878);fill-opacity:1;stroke:none;stroke-width:1.99999988;stroke-miterlimit:4;stroke-dasharray:none;stroke-opacity:0.03921569;paint-order:stroke markers fill"
       d="M 37 14 A 20.999947 20.999947 0 0 0 16 35 A 20.999947 20.999947 0 0 0 22.332031 50 L 27 50 A 20.999949 20.999949 0 0 0 48 29 A 20.999949 20.999949 0 0 0 42.365234 14.722656 A 20.999947 20.999947 0 0 0 37 14 z "
       transform="matrix(0.26458333,0,0,0.26458333,0,280.06667)"
       id="path861" />
    <rect
       style="opacity:1;fill:#ffffff;fill-opacity:1;stroke:none;stroke-width:0.4445889;stroke-miterlimit:4;stroke-dasharray:none;stroke-opacity:0.03921569;paint-order:stroke markers fill"
       id="rect830"
       width="4.7624998"
       height="0.52916664"
       x="7.6729164"
       y="288.53336"
       ry="0.2645804" />
    <rect
       ry="0.2645804"
       y="290.12085"
       x="7.6729164"
       height="0.52916664"
       width="3.96875"
       id="rect832"
       style="opacity:1;fill:#ffffff;fill-opacity:1;stroke:none;stroke-width:0.40585232;stroke-miterlimit:4;stroke-dasharray:none;stroke-opacity:0.03921569;paint-order:stroke markers fill" />
  </g>
</svg>

<svg xmlns="http://www.w3.org/2000/svg" xmlns:xlink="http://www.w3.org/1999/xlink" width="64" height="64" viewBox="0 0 16.933 16.933"><defs><linearGradient id="b"><stop offset="0" stop-color="#70bd87"/><stop offset="1" stop-color="#70bd87" stop-opacity="0"/></linearGradient><linearGradient id="a"><stop offset="0" stop-color="#69e17c"/><stop offset="1" stop-color="#5eda82"/></linearGradient><linearGradient xlink:href="#a" id="c" x1="10.583" y1="283.506" x2="10.583" y2="294.619" gradientUnits="userSpaceOnUse" gradientTransform="translate(-.794 .265)"/><linearGradient xlink:href="#b" id="d" x1="27" y1="50" x2="27" y2="14" gradientUnits="userSpaceOnUse"/></defs><g transform="translate(0 -280.067)" paint-order="stroke markers fill"><path d="M7.144 282.183a5.556 5.556 0 0 0-5.557 5.557v5.556H5.91a5.556 5.556 0 0 1-1.676-3.969 5.556 5.556 0 0 1 5.557-5.556 5.556 5.556 0 0 1 1.42.191 5.556 5.556 0 0 0-4.066-1.779z" fill="#fff" stroke="#000" stroke-width=".52916" stroke-opacity=".039"/><path d="M7.144 282.183a5.556 5.556 0 0 0-5.557 5.557v5.556h5.557a5.556 5.556 0 0 0 5.556-5.556 5.556 5.556 0 0 0-5.556-5.557z" fill="#fff"/><path d="M9.79 283.77a5.556 5.556 0 0 1 5.556 5.557v5.556H9.79a5.556 5.556 0 0 1-5.557-5.556 5.556 5.556 0 0 1 5.557-5.556z" opacity=".65" fill="url(#c)"/><path d="M37 14a21 21 0 0 0-21 21 21 21 0 0 0 6.332 15H27a21 21 0 0 0 21-21 21 21 0 0 0-5.635-14.277A21 21 0 0 0 37 14z" transform="matrix(.26458 0 0 .26458 0 280.067)" fill="url(#d)"/><rect width="4.762" height=".529" x="7.673" y="288.533" ry=".265" fill="#fff"/><rect ry=".265" y="290.121" x="7.673" height=".529" width="3.969" fill="#fff"/></g></svg>
